app/dist/common/images/nikolamotor.svg

<svg height="18" width="18" xmlns="http://www.w3.org/2000/svg" xmlns:xlink="http://www.w3.org/1999/xlink"><linearGradient id="a" gradientUnits="userSpaceOnUse" x1="3.349" x2="21.904" y1="3.122" y2="24.434"><stop offset="0" stop-color="#1a1e21"/><stop offset="1" stop-color="#06060a"/></linearGradient><path d="m0 0h18v18h-18z" fill="url(#a)"/><path d="m6 7.056v3.944l2 1v-3l2 3 2-1v-4l-2-1v3l-2-3zm3-3.556-5 2.5v6l5 2.5 5-2.5v-6zm4 8-4 1.944-4-1.944v-5l4-1.944 4 1.944z" fill="#00adee"/></svg>

<!-- by TradingView --><svg width="18" height="18" xmlns="http://www.w3.org/2000/svg"><path fill="url(#paint0_linear)" d="M0 0h18v18H0z"/><path d="M6 7.056V11l2 1V9l2 3 2-1V7l-2-1v3L8 6 6 7.056zM9 3.5L4 6v6l5 2.5 5-2.5V6L9 3.5zm4 8l-4 1.944L5 11.5v-5l4-1.944L13 6.5v5z" fill="#00ADEE"/><defs><linearGradient id="paint0_linear" x1="3.349" y1="3.122" x2="21.904" y2="24.434" gradientUnits="userSpaceOnUse"><stop stop-color="#1A1E21"/><stop offset="1" stop-color="#06060A"/></linearGradient></defs></svg>
